X:1
T:Domine, Domine
T:Domine, Domine
T:Seth Calvisius
T:Source : Biciniorum---Leipzig---J.Apelio---1612. Editor : André Vierendeels (22/04/15).
C:Seth Calvisius
%%score [ 1 2 ]
L:1/8
Q:1/4=96
M:4/2
K:C
V:1 treble nm="1.Vox" snm="1.V"
V:2 treble nm="2.Vox" snm="2.V"
V:1
 F4 E4 D2 d4 ^c2 | ^c4 d4 A4 A4 | z2 d4 ^c2 c4 d4 | A4 A4 z2 d4 ^c2 | ^c4 z2 d3 A d4 c2 | %5
w: Do- mi- ne, Do- mi-|ne, Do- mi- ne,|Do- mi- ne, Do-|mi- ne, Do- mi-|ne non sum di- *|
 B4 A4 z2 d4 c2 | B4 A4 z2 d4 ^c2 | d4 A4 z2 d3 c_BA | G2 F2 E4 D2 D2 G4 | F2 F2 _B4 A2 D2 G4 | %10
w: * gnus, non sum|di- gnus, non sum|di- gnus, non _ _ _|_ sum di- gnus, ut in-|tres, ut in- tres, ut in-|
 F2 F2 _B4 A2 A4 d2- | dc/B/ ^c2 d2 A2 c2 B2 A3 G | F2 E4 D4 ^C2 D4 | z2 A2 c4 BABc d2 A2 | %14
w: tres, ut in- tres, ut in-|* * * * tres sub tec- tum me- *|* * * * um,|sub tec- tum, _ _ _ _ sub|
 G2 F2 E4 D2 D2 F4 | E2 F2 G4 D4 z2 A2 | c4 B2 c2 d4 A2 A2 | c4 B2 c2 d4 A4 | z2 d4 c4 B2 A4 | %19
w: tec- tum me- um, sed tan-|tum dic ver- bum, sed|tan- tum dic ver- bum, sed|tan- tum dic ver- bum,|sed tan- tum dic|
 G4 F4 z2 _B4 A2- | A2 G2 F4 E4 D4 | z2 c4 d2 c2 B2 A4 | z2 d4 c2 c2 B2 A2 c2- | %23
w: ver- bum, sed tan-|* tum dic ver- bum,|et sa- na- bi- tur,|et sa- na- bi- tur, et|
 c2 B2 A2 G2 F2 A4 G2 | F2 E2 D2 G4 F2 A3 G | F4 E4 D4 z2 F2- | F2 ED F2 E4 D4 ^C2 | D16 |] %28
w: _ sa- na- bi- tur, et sa-|na- bi- tur pue- er me- *|* * us, pu-|* * * er me- * *|us.|
V:2
 z8 D4 A4 | A4 z2 d4 ^c2 c4 | d4 A4 A4 z2 d2- | d2 ^c2 c4 d4 A4 | A2 A4 G2 F4 E4 | %5
w: Do- mi-|ne, Do- mi- ne,|Do- mi- ne, Do-|* mi- ne, Do- mi-|ne- non sum di- gnus,|
"^-natural" z2 d4 c2 B4 A4 | z2 d4 ^c2 d4 A4 | z2 d4 _B2 BAGF G3 F | %8
w: non sum di- gnus,|non sum di- gnus,|non sum di- * * * * *|
"^-natural" E2 D4 ^C2 D2 d2 _B4 | A2 D2 G4 F2 F2 _B4 | A2 D2 G4 D4 z2 D2 | A4 DEFG A2 E2 c2 B2 | %12
w: * * * gnus ut in-|tres, ut in- tres, ut in-|tres, ut in- tres, ut|in- tres _ _ _ _ sub tec- tum|
 A2 GF G2 F2 E4 D2 D2 | F4 E2 A2 G4 F4 | E2 D4 ^C2 D4 z2 A2 | c4 B2 c2 d4 A4 | z2 E2 G4 D2 D2 F4 | %17
w: me- * * * * * um, ut|in- tres sub tec- tum|me- * * um, sed|tan- tum dic ver- bum,|sed tan- tum, sed tan-|
 E2 F2 G4 D2 d4 c2- | c2 B2 A4 G4 F4 | z2 _B4 A4 G2 F4 | E4 D4 z2 G4 F2 | F2 E2 F4 z2 d4 c2 | %22
w: tum- dic ver- bum, sed- tan-|* tum dic ver- bum,|sed tan- tum dic|ver- bum, et sa-|na- bi- tur, et sa-|
 c2 B2 A2 F4 G2 F2 E2 | D4 z2 d4 c2 c2 B2 | A2 c4 B2 A3 G F2 E2- | E2 D4 ^C2 D2 A3 BcB | %26
w: na- bi- tur, et sa- na- bi-|tur, et sa- na- bi-|tur pu- er me- * * *|* * * us, pu- * * *|
 AG A4 GF G2 F2 E4 | D16 |] %28
w: * * * * * * er me-|us.|

